my-site/themes/moving-test/assets/images/google.svg

<svg width="45" height="45" viewBox="0 0 45 45" fill="none" xmlns="http://www.w3.org/2000/svg">
<mask id="mask0_8090_1738" style="mask-type:luminance" maskUnits="userSpaceOnUse" x="0" y="0" width="45" height="45">
<path d="M44.9299 0H0V44.9299H44.9299V0Z" fill="white"/>
</mask>
<g mask="url(#mask0_8090_1738)">
<path d="M44.9298 22.465C44.9298 21.0535 44.7974 19.6407 44.5352 18.2692C44.4169 17.6484 43.8732 17.1997 43.2421 17.1997H22.5526C21.8251 17.1997 21.2363 17.7884 21.2363 18.516V26.4138C21.2363 27.1414 21.8251 27.7301 22.5526 27.7301H33.1679C32.5066 29.069 31.5951 30.2309 30.5247 31.2083L37.9645 38.6481C42.2451 34.5696 44.9298 28.8306 44.9298 22.465Z" fill="#4081EC"/>
<path d="M22.4648 10.5305C25.0474 10.5305 27.5038 11.3506 29.5682 12.9034C30.0901 13.2955 30.8267 13.2479 31.2895 12.7812L36.9069 7.16378C37.1678 6.9028 37.308 6.54415 37.2912 6.17523C37.2746 5.80631 37.1049 5.46179 36.822 5.22399C32.8024 1.85493 27.703 0 22.4648 0C14.7557 0 7.94524 3.91856 3.91919 9.86808L11.6457 17.5946C13.4891 13.4425 17.6365 10.5305 22.4648 10.5305Z" fill="#E34133"/>
<path d="M22.4648 44.9295C27.4899 44.9295 32.1171 43.2446 35.8562 40.4377L28.2768 32.8583C26.5444 33.8338 24.5644 34.3991 22.4648 34.3991C17.6365 34.3991 13.4891 31.4871 11.6457 27.335L3.91919 35.0614C7.94524 41.011 14.7557 44.9295 22.4648 44.9295Z" fill="#32A350"/>
<path d="M10.7221 24.3602C10.6213 23.739 10.5305 23.1134 10.5305 22.4642C10.5305 21.8151 10.6213 21.1895 10.7221 20.5683L2.46237 12.3086C0.899651 15.3606 0 18.8063 0 22.4642C0 26.1222 0.899651 29.5679 2.46246 32.6198L10.7221 24.3602Z" fill="#F3B605"/>
</g>
</svg>

<svg xmlns="http://www.w3.org/2000/svg" width="45" height="45" fill="none" viewBox="0 0 45 45"><mask id="a" width="45" height="45" x="0" y="0" maskUnits="userSpaceOnUse" style="mask-type:luminance"><path fill="#fff" d="M44.93 0H0v44.93h44.93z"/></mask><g mask="url(#a)"><path fill="#4081ec" d="M44.93 22.465c0-1.412-.133-2.824-.395-4.196a1.32 1.32 0 0 0-1.293-1.07h-20.69c-.727 0-1.316.59-1.316 1.317v7.898c0 .727.59 1.316 1.317 1.316h10.615a11.8 11.8 0 0 1-2.643 3.478l7.44 7.44c4.28-4.078 6.965-9.817 6.965-16.183"/><path fill="#e34133" d="M22.465 10.53c2.582 0 5.039.82 7.103 2.373a1.314 1.314 0 0 0 1.721-.122l5.618-5.617a1.314 1.314 0 0 0-.085-1.94A22.4 22.4 0 0 0 22.465 0c-7.71 0-14.52 3.919-18.546 9.868l7.727 7.727c1.843-4.152 5.99-7.064 10.819-7.064"/><path fill="#32a350" d="M22.465 44.93c5.025 0 9.652-1.685 13.391-4.492l-7.58-7.58a11.8 11.8 0 0 1-5.811 1.541c-4.828 0-8.976-2.912-10.82-7.064L3.92 35.061c4.026 5.95 10.837 9.868 18.546 9.868"/><path fill="#f3b605" d="M10.722 24.36c-.1-.621-.191-1.247-.191-1.896s.09-1.274.191-1.896l-8.26-8.26A22.2 22.2 0 0 0 0 22.465c0 3.658.9 7.104 2.462 10.156z"/></g></svg>
